X: 1447
T: the Kerry Huntsman   #2
R: reel
B: O'Neill's 1850 #1447
O: Stack
Z: Bob Safranek, rjs@gsp.org
M: C|
L: 1/8
K: A
|: A2cA BAcB | A2cA BAFE |1 A2cA BABc | efed cBAG :|2 ((3ded) cA ((3BcB) AF | EFAc TB2A |: e | feae feae |
| feae dcBA |1 feae feae | efed cAA :|2 Ac ((3efg) abaf | efed cea2 |[| e3f e3f | e2cA BAFE |
| e3f e2(cA) | ((3Bcd) (cA) Bc ((3efg) || agfa gfeg | fedf ecAc | ((3ded) (fd) ((3cdc) (ec) | ((3Bcd) (cA) BAFE |]
